www/assets/icons/perm_contact_calendar.svg

<svg width="24" height="24" viewBox="0 0 24 24" xmlns="http://www.w3.org/2000/svg" fill='currentColor'><path d="M19 4H18V2H16V4H8V2H6V4H5C3.89 4 3 4.9 3 6V20C3 21.1 3.89 22 5 22H19C20.1 22 21 21.1 21 20V6C21 4.9 20.1 4 19 4ZM12 7C13.66 7 15 8.34 15 10C15 11.66 13.66 13 12 13C10.34 13 9 11.66 9 10C9 8.34 10.34 7 12 7ZM18 19H6V18C6 16 10 14.9 12 14.9C14 14.9 18 16 18 18V19Z"/></svg>

<svg xmlns="http://www.w3.org/2000/svg" width="24" height="24" viewBox="0 0 24 24" fill='currentColor'><path d="M19 4h-1V2h-2v2H8V2H6v2H5a2 2 0 0 0-2 2v14a2 2 0 0 0 2 2h14c1.1 0 2-.9 2-2V6c0-1.1-.9-2-2-2m-7 3c1.66 0 3 1.34 3 3s-1.34 3-3 3-3-1.34-3-3 1.34-3 3-3m6 12H6v-1c0-2 4-3.1 6-3.1s6 1.1 6 3.1z"/></svg>
